svgs/sharp-light/phone-intercom.svg

<svg xmlns="http://www.w3.org/2000/svg" viewBox="0 0 512 512"><!--! Font Awesome Pro 6.6.0 by @fontawesome - https://fontawesome.com License - https://fontawesome.com/license (Commercial License) Copyright 2024 Fonticons, Inc. --><path d="M96 64l0 384-64 0L32 64l64 0zM32 32L0 32 0 64 0 448l0 32 32 0 64 0 32 0 0-32 0-384 0-32L96 32 32 32zM480 64l0 384-288 0 0-384 288 0zM192 32l-32 0 0 32 0 384 0 32 32 0 288 0 32 0 0-32 0-384 0-32-32 0L192 32zm64 320a16 16 0 1 1 32 0 16 16 0 1 1 -32 0zm64 0a48 48 0 1 0 -96 0 48 48 0 1 0 96 0zm32-48l0 32 16 0 64 0 16 0 0-32-16 0-64 0-16 0zm0 64l0 32 16 0 64 0 16 0 0-32-16 0-64 0-16 0zM256 128l160 0 0 96-160 0 0-96zM224 96l0 32 0 96 0 32 32 0 160 0 32 0 0-32 0-96 0-32-32 0L256 96l-32 0z"/></svg>

<svg xmlns="http://www.w3.org/2000/svg" viewBox="0 0 512 512"><!--! Font Awesome Pro 6.4.2 by @fontawesome - https://fontawesome.com License - https://fontawesome.com/license (Commercial License) Copyright 2023 Fonticons, Inc. --><path d="M96 64V448H32V64H96zM32 32H0V64 448v32H32 96h32V448 64 32H96 32zM480 64V448H192V64H480zM192 32H160V64 448v32h32H480h32V448 64 32H480 192zm64 320a16 16 0 1 1 32 0 16 16 0 1 1 -32 0zm64 0a48 48 0 1 0 -96 0 48 48 0 1 0 96 0zm32-48v32h16 64 16V304H432 368 352zm0 64v32h16 64 16V368H432 368 352zM256 128H416v96H256V128zM224 96v32 96 32h32H416h32V224 128 96H416 256 224z"/></svg>
